build/svg/cmd/sc_managexmlsource.svg

<?xml version="1.0" encoding="UTF-8" standalone="no"?>
<svg
   xmlns:dc="http://purl.org/dc/elements/1.1/"
   xmlns:cc="http://creativecommons.org/ns#"
   xmlns:rdf="http://www.w3.org/1999/02/22-rdf-syntax-ns#"
   xmlns:svg="http://www.w3.org/2000/svg"
   xmlns="http://www.w3.org/2000/svg"
   xmlns:sodipodi="http://sodipodi.sourceforge.net/DTD/sodipodi-0.dtd"
   xmlns:inkscape="http://www.inkscape.org/namespaces/inkscape"
   viewBox="0 0 16 16"
   version="1.1"
   id="svg4"
   sodipodi:docname="sc_managexmlsource.svg"
   inkscape:version="0.92.5 (2060ec1f9f, 2020-04-08)"
   inkscape:export-filename="/home/jupiter007/Libreoffice yaru theme fullcolor/build/cmd/sc_managexmlsource.png"
   inkscape:export-xdpi="96"
   inkscape:export-ydpi="96"><metadata
   id="metadata10">
  <rdf:RDF>
    <cc:Work
       rdf:about="">
      <dc:format>image/svg+xml</dc:format>
      <dc:type
         rdf:resource="http://purl.org/dc/dcmitype/StillImage" />
    </cc:Work>
  </rdf:RDF>
</metadata>
<defs
   id="defs8">
  <linearGradient
     id="d"
     gradientUnits="userSpaceOnUse"
     x1="7.5957031"
     x2="7.5957031"
     y1="14.844112"
     y2="4.9876151">
    <stop
       offset="0"
       stop-color="#cc3b02"
       id="stop21" />
    <stop
       offset="1"
       stop-color="#f37329"
       id="stop23" />
  </linearGradient>
</defs>
<sodipodi:namedview
   pagecolor="#ffffff"
   bordercolor="#666666"
   borderopacity="1"
   objecttolerance="10"
   gridtolerance="10"
   guidetolerance="10"
   inkscape:pageopacity="0"
   inkscape:pageshadow="2"
   inkscape:window-width="1920"
   inkscape:window-height="1011"
   id="namedview6"
   showgrid="true"
   inkscape:zoom="29.5"
   inkscape:cx="3.4900722"
   inkscape:cy="6.2982485"
   inkscape:window-x="0"
   inkscape:window-y="32"
   inkscape:window-maximized="1"
   inkscape:current-layer="svg4">
  <inkscape:grid
     type="xygrid"
     id="grid821" />
</sodipodi:namedview>


/&gt;<path
   sodipodi:nodetypes="cccscsccccccccscscccccc"
   inkscape:connector-curvature="0"
   id="path4237-1"
   d="M 4.9946163,1 C 3.7364162,1.0145 2.8157251,0.9694 2.0629751,1.384766 1.6866051,1.5924259 1.3897441,1.9441519 1.2250841,2.3828119 1.0604141,2.8214819 1.0004751,3.3423999 1.0004751,4 V 5.488281 12 c 0,0.657609 0.0599,1.178577 0.224609,1.617189 0.16468,0.43861 0.461531,0.788523 0.837891,0.996092 C 2.8156952,15.028412 3.7365163,14.984931 4.9946163,15 h 0.002 6.0048587 0.0039 c 1.25819,-0.0145 2.178891,0.0306 2.931641,-0.384766 0.37637,-0.20766 0.673221,-0.559386 0.837891,-0.998045 C 14.939446,13.178518 14.999525,12.657609 14.999525,12 V 5.466797 4 c 0,-0.6576001 -0.0599,-1.1785771 -0.224609,-1.6171881 C 14.610236,1.9442129 14.313385,1.5942789 13.937025,1.386719 13.184255,0.971589 12.263424,1.01508 11.005334,1 h -0.002 -6.0048587 z"
   style="font-style:normal;font-variant:normal;font-weight:normal;font-stretch:normal;font-size:15px;line-height:125%;font-family:Ubuntu;-inkscape-font-specification:Ubuntu;text-align:center;letter-spacing:0px;word-spacing:0px;writing-mode:lr-tb;text-anchor:middle;display:inline;opacity:0.6;fill:#000000;fill-opacity:1;stroke:none;stroke-width:0.99980211" />
<path
   inkscape:connector-curvature="0"
   id="path1993"
   d="m 5.9828442,2.0271849 c -1.5565809,0.0108 -1.1089899,-0.01175 -2.6589411,0.03877 -0.461229,0.04267 -1.016188,0.206419 -1.15534,0.709967 -0.218994,0.635346 -0.1084139,1.3337871 -0.1457959,1.9819241 -0.0078,2.297084 -0.02297,5.595846 0.02152,7.885197 0.0391,0.461929 0.202551,1.012665 0.698756,1.163665 0.632456,0.225083 1.2841441,0.12274 1.9359741,0.154299 1.4242349,0.0068 0.8495629,0.01102 2.2754199,0.01131 1.7045311,3.49e-4 3.4083878,-0.005 5.1071898,-0.01851 0.511911,-0.01201 1.183699,0.01993 1.584745,-0.405192 0.421097,-0.539783 0.287073,-1.268021 0.322745,-1.903787 0.01187,-2.444322 0.02769,-5.910512 -0.0219,-8.3562111 -0.04928,-0.40204 -0.169992,-0.862952 -0.575139,-1.044475 -0.668169,-0.294097 -1.426205,-0.168019 -2.125921,-0.205572 -1.7544068,-0.0118 -3.5088738,-0.01249 -5.2633128,-0.01139 z"
   style="opacity:1;vector-effect:none;fill:#ffffff;fill-opacity:1;stroke:none;stroke-width:1;stroke-linecap:round;stroke-linejoin:bevel;stroke-miterlimit:4;stroke-dasharray:none;stroke-dashoffset:0;stroke-opacity:1"
   sodipodi:nodetypes="cccccccscccccccc" />
<path
   inkscape:connector-curvature="0"
   style="fill:#232629;fill-opacity:1;stroke-width:0.65463001"
   d="M 8.4042969,5 6.6953125,11 H 7.5957031 L 9.3046875,5 Z M 6,6 2.8,8 6,10 V 9 L 4.5,8.0019531 6,7 Z m 4,0 V 7 L 11.5,8.0019531 10,9 v 1 l 3.2,-2 z"
   id="path32"
   sodipodi:nodetypes="ccccccccccccccccccc" />
</svg>

<svg xmlns="http://www.w3.org/2000/svg" viewBox="0 0 16 16">/&gt;<path d="M4.995 1c-1.259.014-2.18-.03-2.932.385a1.88 1.88 0 00-.838.998C1.06 2.82 1 3.343 1 4v8c0 .658.06 1.179.225 1.617.165.439.462.789.838.996.753.415 1.674.372 2.932.387H11.005c1.259-.015 2.18.03 2.932-.385a1.88 1.88 0 00.838-.998c.164-.438.225-.96.225-1.617V4c0-.658-.06-1.179-.225-1.617a1.875 1.875 0 00-.838-.996c-.753-.415-1.674-.372-2.932-.387H4.998z" style="line-height:125%;-inkscape-font-specification:Ubuntu;text-align:center" font-weight="400" font-size="15" font-family="Ubuntu" letter-spacing="0" word-spacing="0" text-anchor="middle" opacity=".6"/><path d="M5.983 2.027c-1.557.011-1.11-.012-2.66.039-.46.043-1.015.206-1.154.71-.22.635-.109 1.334-.146 1.982-.008 2.297-.023 5.596.021 7.885.04.462.203 1.013.699 1.164.632.225 1.284.122 1.936.154 1.424.007.85.011 2.275.011 1.705 0 3.409-.005 5.108-.018.512-.012 1.183.02 1.584-.405.421-.54.287-1.268.323-1.904.012-2.444.028-5.91-.022-8.356-.05-.402-.17-.863-.575-1.045-.668-.294-1.426-.168-2.126-.205a715.83 715.83 0 00-5.263-.012z" fill="#fff"/><path d="M8.404 5l-1.709 6h.9l1.71-6zM6 6L2.8 8 6 10V9l-1.5-.998L6 7zm4 0v1l1.5 1.002L10 9v1l3.2-2z" fill="#232629"/></svg>
